src/topics/icons/podio.svg

<svg height="303" preserveAspectRatio="xMidYMid" viewBox="0 0 256 303" width="256" xmlns="http://www.w3.org/2000/svg"><path d="m219.773101 37.6558611c-50.013085-50.0104374-131.2802662-50.2116156-181.551-.5761815l-.5885346.5876522c-50.1913213 50.2177922-50.1745565 131.9102712.0291179 182.1086522l77.5453847 77.531266c3.3865 3.3865 7.820362 5.072691 12.254224 5.072691 4.43298 0 8.878313-1.686191 12.262166-5.072691 6.760648-6.769471 6.760648-17.748685 0-24.515509l-77.5577368-77.537443c-36.575614-36.570319-36.692968-96.0264277-.3405912-132.7502783l.354709-.3467678c36.6982622-36.6753208 96.398784-36.6638501 133.074105.0114707 30.115852 30.1184988 34.438537 81.6589494 10.034206 119.9039904-5.14681 8.063894-2.775907 18.781929 5.287987 23.930503 8.083306 5.163575 18.787223 2.782083 23.930503-5.279164 33.488235-52.473988 27.288769-121.0475292-14.73454-163.0681909m-31.032625 186.0960399c6.764177 6.770353 6.773001 17.748684 0 24.510214-3.374147 3.391794-7.814186 5.086809-12.244518 5.086809-4.442686 0-8.88449-1.695015-12.273637-5.077985l-77.5427373-77.529502c-23.1646144-23.172556-23.1646144-60.883768 0-84.0598529 11.2253923-11.214804 26.1478753-17.3966228 42.0197793-17.3966228h.017647c15.869257 0 30.793505 6.1906424 42.010956 17.4222112 15.455429 15.4554295 21.177538 38.0800395 14.916307 59.0590465-2.756495 9.173903-12.395403 14.396596-21.571954 11.651572-9.173903-2.7362-14.396596-12.395402-11.663043-21.5746 2.619729-8.74243.243532-18.185454-6.199466-24.625804-4.677394-4.68357-10.885683-7.260946-17.501623-7.263593h-.008824c-6.61594 0-12.82423 2.573846-17.504271 7.245946-9.653908 9.653908-9.653908 25.366986 0 35.023541z" fill="#5088ac"/></svg>

<?xml version="1.0" encoding="UTF-8" standalone="no"?>
<svg width="256px" height="303px" viewBox="0 0 256 303" version="1.1" xmlns="http://www.w3.org/2000/svg" xmlns:xlink="http://www.w3.org/1999/xlink" preserveAspectRatio="xMidYMid">
    <g>
        <path d="M219.773101,37.6558611 C169.760016,-12.3545763 88.4928348,-12.5557545 38.222101,37.0796796 L37.6335664,37.6673318 C-12.5577549,87.885124 -12.5409901,169.577603 37.6626843,219.775984 L115.208069,297.30725 C118.594569,300.69375 123.028431,302.379941 127.462293,302.379941 C131.895273,302.379941 136.340606,300.69375 139.724459,297.30725 C146.485107,290.537779 146.485107,279.558565 139.724459,272.791741 L62.1667222,195.254298 C25.5911082,158.683979 25.4737542,99.2278703 61.826131,62.5040197 L62.18084,62.1572519 C98.8791022,25.4819311 158.579624,25.4934018 195.254945,62.1687226 C225.370797,92.2872214 229.693482,143.827672 205.289151,182.072713 C200.142341,190.136607 202.513244,200.854642 210.577138,206.003216 C218.660444,211.166791 229.364361,208.785299 234.507641,200.724052 C267.995876,148.250064 261.79641,79.6765228 219.773101,37.6558611 M188.740476,223.751901 C195.504653,230.522254 195.513477,241.500585 188.740476,248.262115 C185.366329,251.653909 180.92629,253.348924 176.495958,253.348924 C172.053272,253.348924 167.611468,251.653909 164.222321,248.270939 L86.6795837,170.741437 C63.5149693,147.568881 63.5149693,109.857669 86.6795837,86.6815841 C97.904976,75.4667801 112.827459,69.2849613 128.699363,69.2849613 L128.71701,69.2849613 C144.586267,69.2849613 159.510515,75.4756037 170.727966,86.7071725 C186.183395,102.162602 191.905504,124.787212 185.644273,145.766219 C182.887778,154.940122 173.24887,160.162815 164.072319,157.417791 C154.898416,154.681591 149.675723,145.022389 152.409276,135.843191 C155.029005,127.100761 152.652808,117.657737 146.20981,111.217387 C141.532416,106.533817 135.324127,103.956441 128.708187,103.953794 L128.699363,103.953794 C122.083423,103.953794 115.875133,106.52764 111.195092,111.19974 C101.541184,120.853648 101.541184,136.566726 111.195092,146.223281 L188.740476,223.751901" fill="#5088AC"></path>
    </g>
</svg>
